source/icons/leaflet.svg

<svg width="25" height="28" viewBox="0 0 25 28" fill="none" xmlns="http://www.w3.org/2000/svg">
<path d="M24.7754 0.767C24.6751 0.317 24.2963 0 23.8641 0C23.8623 0 23.8604 0 23.8585 0C18.9207 0.033 6.91319 0.916 2.06538 8.38C-0.452747 12.258 -0.669309 17.293 1.42132 23.345C1.43725 23.392 1.47007 23.424 1.49163 23.467C0.744441 25.44 0.454754 26.753 0.447254 26.79C0.338504 27.33 0.661941 27.862 1.16819 27.978C1.23382 27.993 1.29944 28 1.36507 28C1.79725 28 2.18632 27.679 2.281 27.21C2.30069 27.108 4.68944 16.837 13.1344 10.832C13.5657 10.526 13.6819 9.905 13.3941 9.445C13.1063 8.985 12.5251 8.86 12.0938 9.168C7.30507 12.573 4.35569 17.176 2.62132 20.824C1.38007 16.246 1.70538 12.447 3.60757 9.519C7.351 3.755 16.2301 2.365 21.5898 2.071C20.4366 3.872 19.1766 7.174 19.1766 13C19.1766 16.12 18.3469 18.522 16.7119 20.14C14.0907 22.731 9.83257 22.974 6.71819 22.724C6.20069 22.679 5.75163 23.095 5.71225 23.646C5.67288 24.196 6.06007 24.676 6.57569 24.718C7.19913 24.769 7.86475 24.8 8.55663 24.8C11.7273 24.8 15.4257 24.137 17.986 21.606C20.0204 19.595 21.0516 16.7 21.0516 13.001C21.0516 3.902 24.2673 1.905 24.2832 1.896C24.6732 1.687 24.8776 1.219 24.7754 0.767Z" fill="white"/>
</svg>

<svg viewBox="0 0 25 28" fill="none" xmlns="http://www.w3.org/2000/svg"><path d="M24.78.77a.95.95 0 0 0-.92-.77c-4.94.03-16.95.92-21.8 8.38-2.51 3.88-2.73 8.91-.64 14.96l.07.13a25.93 25.93 0 0 0-1.04 3.32 1 1 0 0 0 .72 1.19l.2.02c.43 0 .82-.32.91-.79.02-.1 2.4-10.37 10.85-16.38.44-.3.55-.93.26-1.38a.9.9 0 0 0-1.3-.28c-4.78 3.4-7.73 8-9.47 11.65-1.24-4.57-.91-8.37.99-11.3 3.74-5.76 12.62-7.15 17.98-7.45-1.15 1.8-2.41 5.1-2.41 10.93 0 3.12-.83 5.52-2.47 7.14-2.62 2.6-6.88 2.83-10 2.58-.5-.04-.96.38-1 .93a.98.98 0 0 0 .87 1.07c.62.05 1.28.08 1.98.08 3.17 0 6.87-.66 9.43-3.2 2.03-2 3.06-4.9 3.06-8.6 0-9.1 3.22-11.1 3.23-11.1.4-.21.6-.68.5-1.13Z" fill="#fff"/></svg>
